remix/Map/ship-fill.svg

<svg viewBox="0 0 24 24" fill="currentColor" xmlns="http://www.w3.org/2000/svg"><path d="M4 10.4V4C4 3.44772 4.44772 3 5 3H10V1H14V3H19C19.5523 3 20 3.44772 20 4V10.4L21.0857 10.7257C21.5974 10.8792 21.8981 11.4078 21.7685 11.9261L20.2516 17.9938C20.1682 17.9979 20.0844 18 20 18C18.3644 18 16.9122 17.2147 16 16.0005C15.0878 17.2147 13.6356 18 12 18C10.3644 18 8.91223 17.2147 8 16.0005C7.08777 17.2147 5.6356 18 4 18C3.91564 18 3.83178 17.9979 3.74845 17.9938L2.23152 11.9261C2.10195 11.4078 2.40262 10.8792 2.91431 10.7257L4 10.4ZM6 9.8L12 8L14.7541 8.82624L16.5627 9.36882L18 9.8V5H6V9.8ZM4 20C5.53671 20 6.93849 19.4223 8 18.4722C9.06151 19.4223 10.4633 20 12 20C13.5367 20 14.9385 19.4223 16 18.4722C17.0615 19.4223 18.4633 20 20 20H22V22H20C18.5429 22 17.1767 21.6104 16 20.9297C14.8233 21.6104 13.4571 22 12 22C10.5429 22 9.17669 21.6104 8 20.9297C6.82331 21.6104 5.45715 22 4 22H2V20H4Z"/></svg>

<svg viewBox="0 0 24 24" xmlns="http://www.w3.org/2000/svg"><path fill="none" d="M0 0h24v24H0Z"/><path d="M4 10.4V4v0c0-.56.44-1 1-1h5V1h4v2h5v0c.55 0 1 .44 1 1v6.4l1.08.32v0c.51.15.81.68.68 1.2l-1.52 6.068v0c-1.67.08-3.26-.67-4.26-2v0c-.95 1.26-2.43 2-4 2h0c-1.58 0-3.06-.74-4-2v0c-1 1.33-2.6 2.07-4.252 1.99L2.21 11.91v0c-.13-.52.17-1.05.68-1.2l1.08-.33Zm2-.6L12 8l2.75.82 1.8.54 1.43.43v-4.8h-12v4.8ZM4 20h0c1.47 0 2.9-.55 4-1.53v0c1.09.98 2.52 1.53 4 1.52v0c1.47 0 2.9-.55 4-1.53h-.001c1.09.98 2.52 1.53 4 1.52h2v2h-2v0c-1.41 0-2.79-.37-4-1.07h0c-1.22.7-2.6 1.07-4 1.07h-.001c-1.41 0-2.79-.37-4-1.07h0c-1.22.7-2.6 1.07-4 1.07h-2v-2h2Z"/></svg>
